X: 10069
T: Dick's Pig
R: reel
M: 4/4
K: Dminor
(^G2|:A2)D2 D>EF>G|A2D2 D2E2|F2(F/G/F) E2F2|G2(G/A/G) F2G2|
A2D2 D>EF>G|A2D2 D2E2|F2(F/G/F) E>DC2|1 D6^G2:|2 D6E2||
|:F4 G>FE2|F4 G>FE2|c>GE>G c2(_E2|D2)B2 A2(^c2|
d2)A2 F2(E/F/E)|D2D>E F2A2|B>AG>F E>DC2|1 D6E2:|2 D8||

